images/business-icon.svg

<?xml version="1.0" encoding="UTF-8" standalone="no" ?>
<!DOCTYPE svg PUBLIC "-//W3C//DTD SVG 1.1//EN" "http://www.w3.org/Graphics/SVG/1.1/DTD/svg11.dtd">
<svg xmlns="http://www.w3.org/2000/svg" xmlns:xlink="http://www.w3.org/1999/xlink" version="1.1" width="1080" height="1080" viewBox="0 0 1080 1080" xml:space="preserve">
<desc>Created with Fabric.js 5.2.4</desc>
<defs>
</defs>
<g transform="matrix(1 0 0 1 540 540)" id="18c1644a-92c1-4d54-9d9f-38ac5adca144"  >
<rect style="stroke: none; stroke-width: 1; stroke-dasharray: none; stroke-linecap: butt; stroke-dashoffset: 0; stroke-linejoin: miter; stroke-miterlimit: 4; fill: rgb(255,255,255); fill-rule: nonzero; opacity: 1; visibility: hidden;" vector-effect="non-scaling-stroke"  x="-540" y="-540" rx="0" ry="0" width="1080" height="1080" />
</g>
<g transform="matrix(1 0 0 1 540 540)" id="4d234cd5-beb9-4785-a2b5-c18b7bbe5607"  >
</g>
<g transform="matrix(1 0 0 1 540 540)"  >
<g style="" vector-effect="non-scaling-stroke"   >
		<g transform="matrix(1 0 0 1 -0.01 3.82)"  >
<path style="stroke: none; stroke-width: 1; stroke-dasharray: none; stroke-linecap: butt; stroke-dashoffset: 0; stroke-linejoin: miter; stroke-miterlimit: 4; fill: rgb(255,255,255); fill-rule: evenodd; opacity: 1;" vector-effect="non-scaling-stroke"  transform=" translate(-27.96, -35.82)" d="M 47.87 28 C 48.031788191488864 20.78226986526072 44.27369897811484 14.042484272674358 38.04853235314964 10.386105707994798 C 31.823365728184445 6.7297271433152375 24.106634271815572 6.72972714331523 17.88146764685037 10.386105707994787 C 11.65630102188517 14.042484272674344 7.898211808511135 20.782269865260705 8.059999999999995 27.999999999999986 C 8.06 36.89 14.170000000000002 44 19.560000000000002 50.2 L 20.650000000000002 51.470000000000006 C 19.391523660165205 52.138115735928864 18.603444484600395 53.44517388076805 18.6 54.870000000000005 L 18.6 60.150000000000006 C 18.61644137387803 62.277246890475936 20.34269647585458 63.99458077745519 22.47 64 L 33.47 64 C 34.49903998057743 64 35.48593316262543 63.59121545938218 36.2135743110038 62.8635743110038 C 36.94121545938218 62.13593316262543 37.35 61.14903998057743 37.35 60.12 L 37.35 54.84 C 37.34633459165704 53.40725196473943 36.549387374250216 52.094406548624804 35.28 51.43000000000001 L 36.28 50.190000000000005 C 41.74 43.78 47.87 36.51 47.87 28 Z M 10.06 28 C 9.906430824217086 21.502281405777318 13.28511910947985 15.431329219849856 18.888108292959874 12.137328213282958 C 24.491097476439897 8.843327206716058 31.438902523560117 8.843327206716062 37.041891707040136 12.137328213282963 C 42.644880890520156 15.431329219849864 46.023569175782924 21.502281405777325 45.870000000000005 28.000000000000007 C 45.870000000000005 35.82 39.99 42.79 34.81 48.94 L 33.08 51 L 22.87 51 L 21.060000000000002 48.9 C 15.65 42.59 10.06 36.11 10.06 28 Z M 33.49 62 L 22.490000000000002 62 C 21.99139299910166 62 21.513207642851597 61.80192914011301 21.160639251369293 61.44936074863071 C 20.80807085988699 61.0967923571484 20.610000000000003 60.61860700089834 20.610000000000003 60.12 L 20.610000000000003 58.48 L 35.37 58.48 L 35.37 60.12 C 35.37 61.15829532968189 34.528295329681896 62 33.49 62 Z M 35.370000000000005 56.480000000000004 L 20.59 56.480000000000004 L 20.59 54.84 C 20.611763226457793 53.817358674315386 21.44712715090847 52.999768450384934 22.47 53 L 33.47 53 C 33.968607000898345 53 34.446792357148404 53.19807085988698 34.79936074863071 53.55063925136929 C 35.15192914011302 53.9032076428516 35.35 54.38139299910166 35.35 54.88 Z" stroke-linecap="round" />
</g>
		<g transform="matrix(1 0 0 1 -0.11 -4.15)"  >
<path style="stroke: none; stroke-width: 1; stroke-dasharray: none; stroke-linecap: butt; stroke-dashoffset: 0; stroke-linejoin: miter; stroke-miterlimit: 4; fill: rgb(255,255,255); fill-rule: evenodd; opacity: 1;" vector-effect="non-scaling-stroke"  transform=" translate(-27.86, -27.85)" d="M 27.86 42.12 L 27.86 42.12 C 35.72540754854726 42.12518544224792 42.111979095897624 35.7649715726859 42.13932158398739 27.89960984026058 C 42.166664072077154 20.034248107835268 35.824466584042156 13.629785006313252 27.959213084556144 13.580285689362274 C 20.093959585070138 13.530786372411296 13.671655753002561 19.85491714941177 13.599999999999998 27.720000000000002 C 13.56829812031931 27.793389462834202 13.56829812031931 27.876610537165796 13.6 27.95 C 13.660354564294458 35.78584327319007 20.023931657079405 42.10925753719867 27.859999999999996 42.12 Z M 26.86 15.639999999999997 L 26.86 17.349999999999998 C 26.86 17.90228474983079 27.307715250169206 18.349999999999998 27.86 18.349999999999998 C 28.412284749830793 18.349999999999998 28.86 17.90228474983079 28.86 17.349999999999998 L 28.86 15.64 C 34.859507353394854 16.115306517388056 39.62868940260628 20.871782042489684 40.12 26.86999999999999 L 38.39 26.87 C 37.837715250169204 26.87 37.39 27.317715250169208 37.39 27.87 C 37.39 28.422284749830794 37.837715250169204 28.87 38.39 28.87 L 40.12 28.87 C 39.61544838358959 34.853040029090636 34.85522810892852 39.59210376919765 28.869999999999997 40.07 L 28.869999999999997 38.36 C 28.869999999999997 37.8077152501692 28.42228474983079 37.36 27.869999999999997 37.36 C 27.317715250169204 37.36 26.869999999999997 37.8077152501692 26.869999999999997 38.36 L 26.869999999999997 40.08 C 20.89823221427444 39.566888652676155 16.171141151858876 34.81442858634781 15.69 28.839999999999996 L 17.39 28.84 C 17.942284749830794 28.84 18.39 28.392284749830793 18.39 27.84 C 18.39 27.287715250169207 17.942284749830794 26.84 17.39 26.84 L 15.69 26.84 C 16.191769670714926 20.87080984611774 20.93036441466444 16.136442216123584 26.899999999999995 15.64 Z" stroke-linecap="round" />
</g>
		<g transform="matrix(1 0 0 1 0.03 -29.79)"  >
<path style="stroke: none; stroke-width: 1; stroke-dasharray: none; stroke-linecap: butt; stroke-dashoffset: 0; stroke-linejoin: miter; stroke-miterlimit: 4; fill: rgb(255,255,255); fill-rule: evenodd; opacity: 1;" vector-effect="non-scaling-stroke"  transform=" translate(-28, -2.21)" d="M 28 4.42 C 28.552284749830793 4.42 29 3.972284749830793 29 3.42 L 29 1 C 29 0.44771525016920655 28.552284749830793 0 28 0 C 27.447715250169207 0 27 0.44771525016920644 27 0.9999999999999999 L 27 3.42 C 27 3.972284749830793 27.447715250169207 4.42 28 4.42 Z" stroke-linecap="round" />
</g>
		<g transform="matrix(1 0 0 1 16.83 -23.62)"  >
<path style="stroke: none; stroke-width: 1; stroke-dasharray: none; stroke-linecap: butt; stroke-dashoffset: 0; stroke-linejoin: miter; stroke-miterlimit: 4; fill: rgb(255,255,255); fill-rule: evenodd; opacity: 1;" vector-effect="non-scaling-stroke"  transform=" translate(-44.8, -8.38)" d="M 44 10.2 C 44.26580298465003 10.201536758799639 44.521281169195305 10.097186514407905 44.71 9.91 L 46.4 8.19 C 46.717502204915355 7.793171293962761 46.68686741673982 7.221309539723821 46.328787538260336 6.860671947826619 C 45.97070765978084 6.500034355929417 45.39907842845752 6.465330204815945 45 6.78 L 43.27 8.49 C 42.978715792206806 8.778625002914518 42.89315756975782 9.215828201096915 43.05415640911182 9.59296246862478 C 43.21515524846582 9.970096736152644 43.59007810820032 10.210720291063723 44 10.2 Z" stroke-linecap="round" />
</g>
		<g transform="matrix(1 0 0 1 -18.39 -23.66)"  >
<path style="stroke: none; stroke-width: 1; stroke-dasharray: none; stroke-linecap: butt; stroke-dashoffset: 0; stroke-linejoin: miter; stroke-miterlimit: 4; fill: rgb(255,255,255); fill-rule: evenodd; opacity: 1;" vector-effect="non-scaling-stroke"  transform=" translate(-9.58, -8.34)" d="M 10.44 10.2 C 10.846265072352802 10.202362623049147 11.213580043951682 9.958696223542661 11.369370950213598 9.583481505644242 C 11.525161856475515 9.20826678774582 11.438459948772453 8.776090455897593 11.149999999999999 8.489999999999998 L 9.44 6.78 C 9.05063925136929 6.382354980121829 8.412645019878171 6.375639251369291 8.015 6.765000000000001 C 7.617354980121829 7.15436074863071 7.610639251369291 7.792354980121829 8 8.19 L 9.73 9.91 C 9.918718830804695 10.097186514407905 10.174197015349971 10.201536758799637 10.44 10.2 Z" stroke-linecap="round" />
</g>
		<g transform="matrix(1 0 0 1 25.67 -4.8)"  >
<path style="stroke: none; stroke-width: 1; stroke-dasharray: none; stroke-linecap: butt; stroke-dashoffset: 0; stroke-linejoin: miter; stroke-miterlimit: 4; fill: rgb(255,255,255); fill-rule: evenodd; opacity: 1;" vector-effect="non-scaling-stroke"  transform=" translate(-53.64, -27.2)" d="M 54.94 26.2 L 52.339999999999996 26.2 C 51.7877152501692 26.2 51.339999999999996 26.647715250169206 51.339999999999996 27.2 C 51.339999999999996 27.752284749830793 51.7877152501692 28.2 52.339999999999996 28.2 L 54.94 28.2 C 55.492284749830795 28.2 55.94 27.752284749830793 55.94 27.2 C 55.94 26.647715250169206 55.492284749830795 26.2 54.94 26.2 Z" stroke-linecap="round" />
</g>
		<g transform="matrix(1 0 0 1 -25.67 -4.8)"  >
<path style="stroke: none; stroke-width: 1; stroke-dasharray: none; stroke-linecap: butt; stroke-dashoffset: 0; stroke-linejoin: miter; stroke-miterlimit: 4; fill: rgb(255,255,255); fill-rule: evenodd; opacity: 1;" vector-effect="non-scaling-stroke"  transform=" translate(-2.3, -27.2)" d="M 3.6 26.2 L 1 26.2 C 0.44771525016920655 26.2 0 26.647715250169206 0 27.2 C 0 27.752284749830793 0.44771525016920655 28.2 1 28.2 L 3.6 28.2 C 4.152284749830794 28.2 4.6 27.752284749830793 4.6 27.2 C 4.6 26.647715250169206 4.152284749830794 26.2 3.6 26.2 Z" stroke-linecap="round" />
</g>
		<g transform="matrix(1 0 0 1 -0.16 -4.14)"  >
<path style="stroke: none; stroke-width: 1; stroke-dasharray: none; stroke-linecap: butt; stroke-dashoffset: 0; stroke-linejoin: miter; stroke-miterlimit: 4; fill: rgb(255,255,255); fill-rule: evenodd; opacity: 1;" vector-effect="non-scaling-stroke"  transform=" translate(-27.81, -27.86)" d="M 26.6 32.82 L 26.91 32.910000000000004 L 26.91 33.910000000000004 C 26.89091369359445 34.21549680946077 27.045667371619803 34.50565995575831 27.31 34.660000000000004 C 27.580436226635175 34.84110836924018 27.927584235103716 34.86209241729431 28.21786659458071 34.71487779213098 C 28.508148954057702 34.56766316696765 28.696329830644583 34.27519089863541 28.709999999999997 33.95 L 28.709999999999997 32.9 L 29 32.8 C 29.57635883158926 32.61576353684873 30.086960305844315 32.268415595178624 30.47 31.799999999999997 C 31.0786647697967 31.193666885417908 31.3801385563149 30.344393169738584 31.29 29.49 C 31.12522841691621 28.292601306554754 30.25797803056438 27.31103155109291 29.09 27 C 28.76 26.91 28.419999999999998 26.87 28.09 26.79 C 27.76 26.709999999999997 26.98 26.509999999999998 26.74 26.07 C 26.679911051835624 25.959591640899937 26.64893721472558 25.83569629245976 26.65 25.71 C 26.63232481663509 25.402009493957635 26.757792396868123 25.103101435167176 26.99 24.900000000000002 C 27.399752397908177 24.662624275215485 27.892480260377095 24.61517640697774 28.34 24.770000000000003 C 28.703965068839192 24.86151418766497 29.044652076669163 25.028450821501657 29.34 25.26 C 29.659953759162036 25.560639307779184 30.13858091510773 25.617425580518503 30.52 25.400000000000002 C 30.762383761077338 25.231237895345732 30.90778946791431 24.955339887501225 30.91 24.660000000000004 C 30.894387971092154 24.270403923367848 30.712309643961017 23.906247269105574 30.41 23.660000000000004 L 30.41 23.660000000000004 C 29.996611857120186 23.33514049235228 29.51426067890203 23.109359089782078 28.999999999999996 23 L 28.68 22.91 L 28.68 21.71 C 28.6919508823015 21.47533201943896 28.59174232984588 21.24893491944663 28.41 21.1 C 27.94 20.740000000000002 26.88 20.87 26.88 21.610000000000003 L 26.88 22.860000000000003 L 26.57 22.950000000000003 C 25.860745361377692 23.15117234561398 25.25799131941442 23.6211769854782 24.89 24.26 C 24.510062135598538 24.915432564236355 24.36872652552702 25.68217824887435 24.490000000000002 26.43 C 24.55371115304307 27.019944407613544 24.876092201371872 27.551140453155316 25.37 27.88 C 25.88118729839261 28.145470430629047 26.431424296093805 28.327757534161954 26.999999999999996 28.419999999999998 C 27.376063553570596 28.5020507188022 27.7416980246798 28.626165172297984 28.09 28.79 C 28.2659471508444 28.880000917575806 28.43045683972836 28.990793157028268 28.58 29.119999999999997 C 28.951875231286486 29.388413607636814 29.12871408012884 29.85212436682344 29.029999999999998 30.299999999999997 C 28.841996280072248 30.76019301545347 28.406291896756876 31.071410432107307 27.909999999999997 31.099999999999998 C 27.27009743122912 31.14160151619501 26.649051327744232 30.87384511229733 26.239999999999995 30.38 L 26.239999999999995 30.38 C 26.05339334713721 30.101554253056623 25.77307792437697 29.899301353090376 25.449999999999996 29.81 C 25.208716740806203 29.755275790302406 24.955546071729376 29.802293200273816 24.749999999999996 29.939999999999998 C 24.5284383887022 30.09151843929771 24.377090925557123 30.325746656069853 24.329999999999995 30.589999999999996 C 24.288361667961613 30.911452005317468 24.378535179837755 31.236076648071585 24.579999999999995 31.489999999999995 C 25.082065634505717 32.150605696877484 25.794759843977555 32.61985485459904 26.6 32.82 Z" stroke-linecap="round" />
</g>
</g>
</g>
</svg>

<svg xmlns="http://www.w3.org/2000/svg" viewBox="0 0 55.94 64"><defs><style>.cls-1{fill-rule:evenodd;}</style></defs><title>business idea</title><g id="Layer_2" data-name="Layer 2"><g id="business_idea" data-name="business idea"><path class="cls-1" d="M47.87,28A19.91,19.91,0,1,0,8.06,28c0,8.89,6.11,16,11.5,22.2l1.09,1.27a3.86,3.86,0,0,0-2.05,3.4v5.28A3.88,3.88,0,0,0,22.47,64h11a3.88,3.88,0,0,0,3.88-3.88V54.84a3.86,3.86,0,0,0-2.07-3.41l1-1.24C41.74,43.78,47.87,36.51,47.87,28ZM10.06,28a17.91,17.91,0,1,1,35.81,0c0,7.82-5.88,14.79-11.06,20.94L33.08,51H22.87l-1.81-2.1C15.65,42.59,10.06,36.11,10.06,28ZM33.49,62h-11a1.88,1.88,0,0,1-1.88-1.88V58.48H35.37v1.64A1.88,1.88,0,0,1,33.49,62Zm1.88-5.52H20.59V54.84A1.88,1.88,0,0,1,22.47,53h11a1.88,1.88,0,0,1,1.88,1.88Z"/><path class="cls-1" d="M27.86,42.12h0a14.27,14.27,0,1,0-14.26-14.4.29.29,0,0,0,0,.23A14.28,14.28,0,0,0,27.86,42.12Zm-1-26.48v1.71a1,1,0,1,0,2,0V15.64A12.27,12.27,0,0,1,40.12,26.87H38.39a1,1,0,0,0,0,2h1.73a12.27,12.27,0,0,1-11.25,11.2V38.36a1,1,0,0,0-2,0v1.72A12.27,12.27,0,0,1,15.69,28.84h1.7a1,1,0,0,0,0-2H15.69A12.27,12.27,0,0,1,26.9,15.64Z"/><path class="cls-1" d="M28,4.42a1,1,0,0,0,1-1V1a1,1,0,0,0-2,0V3.42A1,1,0,0,0,28,4.42Z"/><path class="cls-1" d="M44,10.2a1,1,0,0,0,.71-.29L46.4,8.19A1,1,0,0,0,45,6.78L43.27,8.49A1,1,0,0,0,44,10.2Z"/><path class="cls-1" d="M10.44,10.2a1,1,0,0,0,.71-1.71L9.44,6.78A1,1,0,0,0,8,8.19L9.73,9.91A1,1,0,0,0,10.44,10.2Z"/><path class="cls-1" d="M54.94,26.2h-2.6a1,1,0,0,0,0,2h2.6a1,1,0,1,0,0-2Z"/><path class="cls-1" d="M3.6,26.2H1a1,1,0,0,0,0,2H3.6a1,1,0,0,0,0-2Z"/><path class="cls-1" d="M26.6,32.82l.31.09v1a.81.81,0,0,0,.4.75.9.9,0,0,0,1.4-.71V32.9L29,32.8a3.13,3.13,0,0,0,1.47-1,2.84,2.84,0,0,0,.82-2.31A3,3,0,0,0,29.09,27c-.33-.09-.67-.13-1-.21s-1.11-.28-1.35-.72a.74.74,0,0,1-.09-.36,1,1,0,0,1,.34-.81,1.63,1.63,0,0,1,1.35-.13,2.68,2.68,0,0,1,1,.49,1,1,0,0,0,1.18.14.91.91,0,0,0,.39-.74,1.36,1.36,0,0,0-.5-1h0A3.44,3.44,0,0,0,29,23l-.32-.09V21.71a.74.74,0,0,0-.27-.61c-.47-.36-1.53-.23-1.53.51v1.25l-.31.09a2.83,2.83,0,0,0-1.68,1.31,3.28,3.28,0,0,0-.4,2.17,2,2,0,0,0,.88,1.45,5.42,5.42,0,0,0,1.63.54,5.13,5.13,0,0,1,1.09.37,2.47,2.47,0,0,1,.49.33,1.15,1.15,0,0,1,.45,1.18,1.29,1.29,0,0,1-1.12.8,2,2,0,0,1-1.67-.72h0a1.4,1.4,0,0,0-.79-.57.9.9,0,0,0-.7.13,1,1,0,0,0-.42.65,1.2,1.2,0,0,0,.25.9A3.64,3.64,0,0,0,26.6,32.82Z"/></g></g></svg>
